content/packer/v1.10.x/img/product-features-list/continuous-delivery.svg

<svg width="72" height="72" viewBox="0 0 72 72" fill="none" xmlns="http://www.w3.org/2000/svg">
<rect width="72" height="72" fill="#F0FAFF"/>
<path d="M41.0732 45.1918L47.9613 27.6476C48.0202 27.471 48.0202 27.2944 47.9025 27.1177L47.8436 27.0589C47.8436 27.0589 47.7847 27.0589 47.7847 27C47.7847 27 47.7847 27 47.7258 27C47.7258 27 47.7258 27 47.667 27C47.667 27 47.667 27 47.6081 27C47.6081 27 47.6081 27 47.5492 27C47.5492 27 47.5492 27 47.4903 27H47.4315L24.3532 33.0051C24.3532 33.0051 24.3532 33.0051 24.2944 33.0051C24.2944 33.0051 24.2355 33.0051 24.2355 33.0639L24.1766 33.1228C24 33.1817 24 33.3583 24 33.5349C24 33.5349 24 33.5349 24 33.5938C24 33.5938 24 33.5938 24 33.6527V33.7115C24 33.7115 24 33.7704 24.0589 33.7704L24.1177 33.8293L30.476 38.1859L31.418 44.3675C31.418 44.3675 31.418 44.3675 31.418 44.4264C31.418 44.4264 31.418 44.4264 31.418 44.4853C31.418 44.4853 31.418 44.4853 31.418 44.5442C31.418 44.5442 31.418 44.5442 31.418 44.603C31.418 44.603 31.418 44.603 31.418 44.6619C31.418 44.7208 31.418 44.6619 31.418 44.7208V44.7797C31.418 44.8385 31.4769 44.8385 31.4769 44.8974C31.5357 44.8974 31.5357 44.9563 31.5946 44.9563C31.6535 44.9563 31.6535 44.9563 31.7124 44.9563H31.7712C31.7712 44.9563 31.7712 44.9563 31.8301 44.9563H31.889C31.889 44.9563 31.889 44.9563 31.9479 44.9563C31.9479 44.9563 32.0067 44.9563 32.0067 44.8974L35.8924 42.2481L40.1312 45.545C40.1901 45.6039 40.249 45.6039 40.3078 45.6628C40.4845 45.7216 40.7199 45.6628 40.8377 45.4861C41.0143 45.3095 41.0143 45.2506 41.0732 45.1918C41.0732 45.2506 41.0732 45.2506 41.0732 45.1918ZM34.4205 39.6577L46.4895 29.0606L40.4845 44.3087L34.4205 39.6577ZM31.0059 37.3617L25.5307 33.5938L44.8999 28.5896L31.0059 37.3617ZM43.1337 30.8267L33.4197 39.3045C33.4197 39.3045 33.4197 39.3045 33.3608 39.3633C33.3608 39.4222 33.3019 39.4222 33.3019 39.4811L32.1834 42.5425L31.4769 38.127L43.1337 30.8267ZM32.8898 43.1901L33.9495 40.3642L35.3625 41.4828L32.8898 43.1901Z" fill="#63D0FF"/>
</svg>

<svg xmlns="http://www.w3.org/2000/svg" width="72" height="72" fill="none" viewBox="0 0 72 72">
  <path fill="#F0FAFF" d="M0 0h72v72H0z"/>
  <path fill="#63D0FF" d="m41.073 45.192 6.888-17.544a.57.57 0 0 0-.058-.53l-.06-.06s-.058 0-.058-.058h-.354l-23.078 6.005h-.059s-.059 0-.059.059l-.058.059c-.177.059-.177.235-.177.412v.177s0 .058.059.058l.059.06 6.358 4.356.942 6.182v.412c0 .059.059.059.059.117.059 0 .059.06.118.06h.353s.059 0 .059-.06l3.885-2.649 4.24 3.297c.058.059.117.059.176.118.176.059.412 0 .53-.177.176-.176.176-.235.235-.294q0 .088 0 0m-6.653-5.534L46.49 29.06l-6.006 15.248zm-3.414-2.296-5.475-3.768L44.9 28.59zm12.128-6.535-9.714 8.477-.06.06c0 .058-.058.058-.058.117l-1.119 3.061-.706-4.415zM32.89 43.19l1.06-2.826 1.412 1.119z"/>
</svg>
